public/footer-icons.svg

<svg width="99" height="63" viewBox="0 0 99 63" fill="none" xmlns="http://www.w3.org/2000/svg">
<g id="footer-icons">
<g id="Group 124">
<g id="mail-icon-footer">
<g id="mail-icon">
<path d="M1 8.30909C1 6.48153 2.47919 5 4.30387 5H43.6961C45.5208 5 47 6.48153 47 8.30909V29.6909C47 31.5185 45.5208 33 43.6961 33H4.30387C2.47919 33 1 31.5185 1 29.6909V8.30909Z" stroke="white" stroke-width="2"/>
<path d="M21.6218 25.7759C22.9516 26.7453 24.7521 26.7512 26.0882 25.7906L45.3807 11.92C48.3897 9.75654 46.8617 5 43.1576 5H4.83747C1.14617 5 -0.39035 9.72965 2.59416 11.9053L21.6218 25.7759Z" stroke="white" stroke-width="2"/>
</g>
</g>
<g id="Git-icon-footer">
<g id="git-icon-neon" clip-path="url(#clip0)">
<g id="Group 125">
<path id="Vector" d="M79.5059 32.8477L79.4221 32.8334L79.3234 32.8164C74.6398 32.8095 70.9824 32.2307 68.4265 30.9855C65.5853 29.6179 64.3111 26.7763 64.3111 22.9734C64.3111 20.5859 65.1365 18.5614 66.8199 17.0278C67.5822 16.3219 68.5146 15.8441 69.6295 15.5755L69.641 15.5727L69.641 15.5728C70.6529 15.3417 71.6244 15.2166 72.5573 15.2521L72.5581 15.2521C73.3831 15.2841 74.5384 15.3635 75.9789 15.4726C77.4113 15.5811 78.5507 15.6413 79.5757 15.6413C80.3211 15.6413 81.7428 15.5664 83.8814 15.3949C86.0347 15.2223 87.7292 15.2126 88.8881 15.4049C88.8888 15.405 88.8896 15.4052 88.8903 15.4053L88.7263 16.3917L79.5059 32.8477ZM79.5059 32.8477H79.5909M79.5059 32.8477H79.5909M79.5909 32.8477C84.3184 32.8477 88.0177 32.2687 90.6168 31.0176L90.6191 31.0165M79.5909 32.8477L90.6191 31.0165M90.6191 31.0165C93.4667 29.637 94.7796 26.8048 94.7796 22.989M90.6191 31.0165L94.7796 22.989M94.7796 22.989C94.7796 20.6439 93.91 18.6298 92.1717 17.0497L94.7796 22.989ZM85.0726 21.4106L85.0727 21.4106L85.0804 21.3997C85.4546 20.8724 85.8524 20.6982 86.2528 20.6982C86.5883 20.6982 86.9359 20.8386 87.3341 21.3997C87.7259 21.952 87.9539 22.661 87.9539 23.5972C87.9539 24.5304 87.7273 25.238 87.3378 25.7894C86.9196 26.3604 86.5685 26.4963 86.2528 26.4963C85.8613 26.4963 85.4729 26.3301 85.0766 25.7894C84.688 25.239 84.4605 24.5166 84.4605 23.5972C84.4605 22.6634 84.6797 21.949 85.0726 21.4106ZM94.9762 8.57921C94.9755 8.69169 94.9723 8.78441 94.9679 8.85955L94.2093 9.27536L95.0549 10.2142C96.9578 12.327 97.924 14.907 97.924 17.967C97.924 20.0263 97.6902 21.8525 97.2477 23.4681C96.7807 25.1017 96.2124 26.3933 95.5663 27.3344C94.8808 28.3263 94.0745 29.1826 93.0872 29.9258L93.0871 29.9258L93.0799 29.9314C92.0564 30.7166 91.1442 31.2455 90.3437 31.5801C89.5261 31.9219 88.5669 32.1994 87.4757 32.3913C86.3173 32.5949 85.5208 32.7062 84.9979 32.7196L84.9837 32.72L84.9696 32.7207C84.414 32.7508 83.7949 32.7661 83.1267 32.7661C82.9518 32.7661 82.4126 32.7827 81.5725 32.8135L81.5718 32.8135C80.7447 32.8445 80.0447 32.8596 79.4998 32.8596C78.955 32.8596 78.255 32.8445 77.4279 32.8135L77.4272 32.8135C76.5871 32.7827 76.0479 32.7661 75.873 32.7661C75.1797 32.7661 74.5854 32.7654 74.057 32.7225L74.0422 32.7213L74.0274 32.7206C73.48 32.6925 72.6611 32.5912 71.524 32.3913L71.5218 32.3909C70.4093 32.1978 69.471 31.9356 68.6488 31.5835L68.6488 31.5835L68.6408 31.5801C67.8455 31.2476 66.932 30.7046 65.8973 29.9258C64.9048 29.1787 64.0871 28.3226 63.4229 27.3413L63.4229 27.3413L63.4191 27.3357C62.7727 26.3945 62.204 25.1024 61.7368 23.468C61.2943 21.8525 61.0605 20.0263 61.0605 17.967C61.0605 14.907 62.0267 12.327 63.9297 10.2142L64.824 9.22121L64.0135 8.83249C64.0099 8.76447 64.0073 8.68332 64.0064 8.58762C64.0012 8.06419 64.0464 7.26768 64.1516 6.17873L64.1517 6.17874L64.1529 6.16509C64.3035 4.34578 64.6475 2.66299 65.1886 1.11165C67.4103 1.55333 70.1934 2.91996 73.5795 5.32286L73.962 5.59431L74.4153 5.47373C75.5875 5.16192 77.2665 4.97706 79.4847 4.97706C81.83 4.97706 83.4839 5.15002 84.5211 5.46436L84.9852 5.605L85.383 5.32769C87.0879 4.13919 88.7084 3.18623 90.2445 2.44897C91.8763 1.69692 92.9042 1.32417 93.4848 1.23893L93.5238 1.23321L93.5622 1.22444L93.801 1.1699C94.3304 2.7051 94.6677 4.36853 94.8165 6.16509L94.8174 6.17569L94.8185 6.18626C94.931 7.26578 94.9797 8.05729 94.9762 8.57921ZM64.042 9.09677C64.0419 9.09682 64.0416 9.09574 64.0411 9.09342C64.0417 9.09557 64.042 9.09672 64.042 9.09677ZM94.9419 9.09126C94.9415 9.09288 94.9413 9.09365 94.9413 9.09364L94.9419 9.09126ZM72.838 20.6982C73.1618 20.6982 73.5237 20.8422 73.9193 21.3997C74.3111 21.952 74.5391 22.661 74.5391 23.5972C74.5391 24.5335 74.3111 25.2425 73.9193 25.7948C73.5237 26.3523 73.1618 26.4963 72.838 26.4963C72.4258 26.4963 72.042 26.3253 71.6656 25.7948C71.2747 25.2437 71.0458 24.5196 71.0458 23.5972C71.0458 22.6749 71.2747 21.9508 71.6656 21.3997C72.042 20.8692 72.4258 20.6982 72.838 20.6982Z" stroke="white" stroke-width="2"/>
</g>
</g>
</g>
<g id="D.K 2021">
<path d="M1 62.746V44.254H6.31092C7.9477 44.254 9.39495 44.6096 10.6527 45.3209C11.9104 46.0321 12.8796 47.0439 13.5601 48.3563C14.2493 49.6687 14.5982 51.1758 14.6068 52.8777V54.0588C14.6068 55.803 14.2622 57.3313 13.573 58.6437C12.8925 59.9561 11.9147 60.9637 10.6398 61.6664C9.37342 62.3692 7.89601 62.7291 6.20754 62.746H1ZM3.48101 46.2607V60.752H6.09124C8.00369 60.752 9.48972 60.1678 10.5493 58.9993C11.6175 57.8309 12.1516 56.1671 12.1516 54.008V52.9285C12.1516 50.8287 11.6477 49.1988 10.6398 48.0388C9.64047 46.8703 8.21906 46.2776 6.37553 46.2607H3.48101Z" fill="white"/>
<path d="M16.726 61.514C16.726 61.1076 16.8466 60.7689 17.0878 60.498C17.3376 60.227 17.7081 60.0916 18.1991 60.0916C18.6901 60.0916 19.0606 60.227 19.3104 60.498C19.5688 60.7689 19.698 61.1076 19.698 61.514C19.698 61.9035 19.5688 62.2295 19.3104 62.492C19.0606 62.7545 18.6901 62.8857 18.1991 62.8857C17.7081 62.8857 17.3376 62.7545 17.0878 62.492C16.8466 62.2295 16.726 61.9035 16.726 61.514Z" fill="white"/>
<path d="M28.808 54.1477L26.5079 56.4973V62.746H24.0269V44.254H26.5079V53.3984L34.8684 44.254H37.8663L30.462 52.4205L38.4478 62.746H35.4757L28.808 54.1477Z" fill="white"/>
<path d="M58.8903 62.746H46.5628V61.0568L53.0754 53.9445C54.0403 52.8692 54.7036 51.9971 55.0654 51.3282C55.4358 50.6508 55.621 49.9523 55.621 49.2326C55.621 48.2674 55.3238 47.4757 54.7294 46.8576C54.135 46.2395 53.3425 45.9305 52.3518 45.9305C51.163 45.9305 50.2369 46.2649 49.5736 46.9338C48.9189 47.5943 48.5915 48.5172 48.5915 49.7025H46.201C46.201 48.0007 46.7566 46.6248 47.8679 45.5749C48.9878 44.525 50.4824 44 52.3518 44C54.1006 44 55.4832 44.453 56.4997 45.359C57.5163 46.2565 58.0245 47.4545 58.0245 48.9532C58.0245 50.7736 56.8443 52.9412 54.4839 55.4559L49.4444 60.8282H58.8903V62.746Z" fill="white"/>
<path d="M73.2207 54.859C73.2207 57.6107 72.7426 59.6555 71.7864 60.9933C70.8302 62.3311 69.3355 63 67.3025 63C65.2953 63 63.8092 62.348 62.8444 61.0441C61.8796 59.7317 61.3799 57.7758 61.3455 55.1765V52.0394C61.3455 49.3215 61.8236 47.3021 62.7798 45.9813C63.736 44.6604 65.235 44 67.2766 44C69.3011 44 70.7914 44.6393 71.7476 45.9178C72.7038 47.1878 73.1949 49.1522 73.2207 51.8108V54.859ZM70.8302 51.6457C70.8302 49.656 70.5459 48.2081 69.9773 47.3021C69.4088 46.3877 68.5085 45.9305 67.2766 45.9305C66.0534 45.9305 65.1617 46.3835 64.6018 47.2894C64.0418 48.1954 63.7533 49.5882 63.736 51.4679V55.2273C63.736 57.2255 64.0289 58.703 64.6147 59.6598C65.2091 60.6081 66.105 61.0822 67.3025 61.0822C68.4827 61.0822 69.3571 60.6335 69.9256 59.736C70.5028 58.8385 70.8043 57.4245 70.8302 55.494V51.6457Z" fill="white"/>
<path d="M88.6108 62.746H76.2832V61.0568L82.7959 53.9445C83.7607 52.8692 84.424 51.9971 84.7859 51.3282C85.1563 50.6508 85.3415 49.9523 85.3415 49.2326C85.3415 48.2674 85.0443 47.4757 84.4499 46.8576C83.8555 46.2395 83.0629 45.9305 82.0723 45.9305C80.8834 45.9305 79.9574 46.2649 79.294 46.9338C78.6393 47.5943 78.312 48.5172 78.312 49.7025H75.9214C75.9214 48.0007 76.4771 46.6248 77.5883 45.5749C78.7082 44.525 80.2029 44 82.0723 44C83.821 44 85.2037 44.453 86.2202 45.359C87.2367 46.2565 87.745 47.4545 87.745 48.9532C87.745 50.7736 86.5648 52.9412 84.2044 55.4559L79.1648 60.8282H88.6108V62.746Z" fill="white"/>
<path d="M99 62.746H96.5965V47.0862L91.7766 48.8262V46.6925L98.6253 44.1651H99V62.746Z" fill="white"/>
</g>
</g>
</g>
<defs>
<clipPath id="clip0">
<rect width="39" height="34" fill="transparent" transform="translate(60)"/>
</clipPath>
</defs>
</svg>

<svg width="99" height="63" fill="none" xmlns="http://www.w3.org/2000/svg"><g stroke="#fff" stroke-width="2"><path d="M1 8.31C1 6.481 2.48 5 4.304 5h39.392A3.306 3.306 0 0147 8.31v21.38c0 1.828-1.48 3.31-3.304 3.31H4.304A3.306 3.306 0 011 29.69V8.31z"/><path d="M21.622 25.776c1.33.97 3.13.975 4.466.015L45.381 11.92C48.39 9.757 46.86 5 43.158 5H4.838C1.145 5-.39 9.73 2.593 11.905l19.028 13.87z"/></g><g clip-path="url(#clip0)"><path d="M79.506 32.848l-.084-.015-.099-.017c-4.683-.007-8.34-.585-10.896-1.83-2.842-1.368-4.116-4.21-4.116-8.013 0-2.387.825-4.412 2.509-5.945.762-.706 1.695-1.184 2.81-1.452l.011-.003h0c1.012-.231 1.983-.356 2.916-.32h.001c.825.031 1.98.11 3.42.22 1.433.108 2.573.168 3.598.168.745 0 2.167-.075 4.305-.246 2.154-.173 3.848-.182 5.007.01h.002l-.164.987-9.22 16.456zm0 0h.085m-.085 0h.085m0 0c4.727 0 8.427-.58 11.026-1.83l.002-.002m-11.028 1.832l11.028-1.831m0 0c2.848-1.38 4.16-4.212 4.16-8.028m-4.16 8.027l4.16-8.027m0 0c0-2.345-.869-4.36-2.607-5.94l2.608 5.94zm-9.706-1.578h0l.007-.011c.375-.528.772-.702 1.173-.702.335 0 .683.14 1.081.702.392.552.62 1.261.62 2.197 0 .933-.227 1.641-.616 2.192-.418.571-.77.707-1.085.707-.392 0-.78-.166-1.176-.707-.389-.55-.617-1.272-.617-2.192 0-.934.22-1.648.613-2.186zm9.903-12.832c0 .113-.004.205-.008.28l-.759.416.846.94c1.903 2.112 2.869 4.692 2.869 7.752 0 2.06-.234 3.886-.676 5.501-.467 1.634-1.036 2.925-1.682 3.866a11.065 11.065 0 01-2.479 2.592h0l-.007.005c-1.024.786-1.936 1.314-2.736 1.65-.818.34-1.777.618-2.868.81-1.159.204-1.955.315-2.478.329h-.028c-.556.03-1.175.046-1.843.046-.175 0-.714.017-1.554.047h-.001c-.827.031-1.527.047-2.072.047-.545 0-1.245-.016-2.072-.047h0a68.79 68.79 0 00-1.555-.047c-.693 0-1.288 0-1.816-.044h-.015l-.015-.001c-.547-.028-1.366-.13-2.503-.33h-.002c-1.113-.193-2.051-.455-2.873-.807h0l-.008-.004c-.796-.332-1.709-.875-2.744-1.654a10.766 10.766 0 01-2.474-2.585h0l-.004-.005c-.646-.941-1.215-2.234-1.682-3.868-.443-1.616-.677-3.442-.677-5.501 0-3.06.967-5.64 2.87-7.753l.894-.993-.81-.389a5.673 5.673 0 01-.008-.244c-.005-.524.04-1.32.146-2.41h0v-.013c.151-1.82.495-3.502 1.037-5.053 2.221.441 5.004 1.808 8.39 4.21l.383.272.453-.12c1.172-.312 2.851-.497 5.07-.497 2.345 0 3.999.173 5.036.487l.464.141.398-.277c1.705-1.189 3.325-2.142 4.862-2.879 1.631-.752 2.66-1.125 3.24-1.21l.039-.006.038-.009.239-.054c.53 1.535.867 3.199 1.016 4.995v.01l.002.011c.112 1.08.16 1.871.157 2.393zm-30.934.518v-.004a.09.09 0 010 .004zm30.9-.006a.14.14 0 010 .003V9.09zM72.838 20.698c.324 0 .686.144 1.081.702.392.552.62 1.261.62 2.197 0 .936-.228 1.645-.62 2.198-.395.557-.757.701-1.081.701-.412 0-.796-.17-1.172-.701-.391-.551-.62-1.275-.62-2.198 0-.922.229-1.646.62-2.197.376-.53.76-.702 1.172-.702z" stroke="#fff" stroke-width="2"/></g><g fill="#fff"><path d="M1 62.746V44.254h5.31c1.638 0 3.085.356 4.343 1.067 1.257.711 2.227 1.723 2.907 3.035.69 1.313 1.038 2.82 1.047 4.522v1.18c0 1.745-.345 3.273-1.034 4.586a7.107 7.107 0 01-2.933 3.022c-1.267.703-2.744 1.063-4.432 1.08H1zm2.481-16.485v14.491h2.61c1.913 0 3.399-.584 4.458-1.753 1.069-1.168 1.603-2.832 1.603-4.991v-1.08c0-2.1-.504-3.73-1.512-4.89-1-1.168-2.42-1.76-4.264-1.777H3.48zM16.726 61.514c0-.406.12-.745.362-1.016.25-.271.62-.406 1.111-.406s.862.135 1.111.406c.259.27.388.61.388 1.016 0 .39-.13.715-.388.978-.25.263-.62.394-1.11.394-.492 0-.862-.132-1.112-.394-.241-.262-.362-.588-.362-.978zM28.808 54.148l-2.3 2.35v6.248h-2.481V44.254h2.48v9.144l8.361-9.144h2.998l-7.404 8.166 7.986 10.326h-2.972l-6.668-8.598zM58.89 62.746H46.563v-1.69l6.512-7.111c.965-1.076 1.629-1.948 1.99-2.617.37-.677.556-1.376.556-2.095 0-.966-.297-1.757-.892-2.375-.594-.618-1.386-.927-2.377-.927-1.189 0-2.115.334-2.778 1.003-.655.66-.982 1.583-.982 2.769H46.2c0-1.702.556-3.078 1.667-4.128 1.12-1.05 2.614-1.575 4.484-1.575 1.749 0 3.131.453 4.148 1.359 1.016.898 1.525 2.096 1.525 3.594 0 1.82-1.18 3.988-3.541 6.503l-5.04 5.372h9.446v1.918zM73.22 54.859c0 2.752-.477 4.797-1.434 6.134C70.83 62.331 69.336 63 67.302 63c-2.007 0-3.493-.652-4.458-1.956-.964-1.312-1.464-3.268-1.498-5.867v-3.138c0-2.718.478-4.737 1.434-6.058.956-1.32 2.455-1.981 4.497-1.981 2.024 0 3.514.64 4.47 1.918.957 1.27 1.448 3.234 1.474 5.893v3.048zm-2.39-3.213c0-1.99-.284-3.438-.853-4.344-.568-.914-1.469-1.371-2.7-1.371-1.224 0-2.115.453-2.675 1.358-.56.906-.849 2.3-.866 4.179v3.76c0 1.997.293 3.475.879 4.432.594.948 1.49 1.422 2.688 1.422 1.18 0 2.054-.449 2.623-1.346.577-.897.878-2.311.904-4.242v-3.848zM88.61 62.746H76.284v-1.69l6.513-7.111c.965-1.076 1.628-1.948 1.99-2.617.37-.677.555-1.376.555-2.095 0-.966-.297-1.757-.891-2.375-.594-.618-1.387-.927-2.378-.927-1.189 0-2.115.334-2.778 1.003-.655.66-.982 1.583-.982 2.769h-2.39c0-1.702.555-3.078 1.666-4.128 1.12-1.05 2.615-1.575 4.484-1.575 1.749 0 3.132.453 4.148 1.359 1.017.898 1.525 2.096 1.525 3.594 0 1.82-1.18 3.988-3.54 6.503l-5.04 5.372h9.446v1.918zM99 62.746h-2.403v-15.66l-4.82 1.74v-2.133l6.848-2.528H99v18.581z"/></g><defs><clipPath id="clip0"><path fill="transparent" transform="translate(60)" d="M0 0h39v34H0z"/></clipPath></defs></svg>
